X:378
T: "Die Koenigstochter"
N: Z1058
O: Europa, Mitteleuropa, Deutschland, Niederrhein
R: Romanze, Ballade, Tod
M: 2/4
L: 1/16
K: A
E2 | A2=c2B2cB | A4A2
B2 | =c2c2dcd2 | e4z2
e2 | edd2e2d2 | =c4c2
c2 | d=cd2edc2 | B4
B2e2 | d2=c2B2A2 | G6
E2 | A2ed=c2B2 | A4z2

@@@ Tune index: 10136
